X: 1
T: Guiry's
M: 4/4
L: 1/8
R: reel
K: Dmaj
d2dA FGAF|d2dA B/c/d ef|d2dA FGAF|E2ed cdef:|
d2ag fgaf|d2ag fgab|d2ag fgaf|gfed B/c/d ef|
d2ag fgaf|d2ag fgeg|bgaf gdBG|E2ed cdef|
